src/assets/icons/svg/livebuoy.svg

<svg width="24" height="24" viewBox="0 0 24 24" fill="none" xmlns="http://www.w3.org/2000/svg">
<path d="M23.0628 7.26018C22.8296 6.71763 22.5556 6.19212 22.2473 5.69187L22.2982 5.64097C22.664 5.27512 22.664 4.68168 22.2982 4.31583L19.6475 1.66537C19.4718 1.48958 19.2335 1.39089 18.9849 1.39089C18.7364 1.39089 18.498 1.48958 18.3222 1.66537L18.2523 1.73531C14.936 -0.270067 10.8832 -0.558643 7.30453 0.980549C6.78305 1.20485 6.27713 1.46688 5.79446 1.76058L5.73238 1.69851C5.5566 1.52273 5.3182 1.42403 5.06972 1.42403C4.82106 1.42403 4.58284 1.52273 4.40706 1.69851L1.7566 4.34897C1.39057 4.71482 1.39057 5.30827 1.7566 5.67411L1.81538 5.73307C0.891055 7.24571 0.306213 8.95647 0.115416 10.7198C-0.105227 12.7609 0.209167 14.8422 1.02491 16.7387C1.24903 17.26 1.51105 17.7661 1.80494 18.2489L1.78956 18.2641C1.42371 18.6302 1.42371 19.2234 1.78956 19.5893L4.4402 22.2399C4.6158 22.4157 4.85421 22.5144 5.10287 22.5144C5.35134 22.5144 5.58975 22.4157 5.76553 22.2399L5.77725 22.228C7.69345 23.4019 9.85704 23.9999 12.0364 23.9999C13.6413 23.9999 15.255 23.6757 16.7832 23.0183C17.3258 22.7848 17.8505 22.5111 18.3513 22.2026L18.3554 22.2068C18.5311 22.3826 18.7696 22.4813 19.018 22.4813C19.2667 22.4813 19.5051 22.3826 19.6807 22.2068L22.3313 19.5561C22.6972 19.1903 22.6972 18.5968 22.3313 18.231L18.2803 14.1799C18.5198 13.497 18.6505 12.7633 18.6505 11.9993C18.6505 11.1917 18.5044 10.4173 18.2378 9.70117L20.878 7.06096C21.0478 7.36565 21.203 7.67949 21.3411 8.00066C22.1296 9.83374 22.3518 11.8527 21.984 13.8388C21.8899 14.3477 22.2259 14.8368 22.7347 14.9309C22.7924 14.9417 22.8499 14.9468 22.9065 14.9468C23.3494 14.9468 23.7433 14.6313 23.8269 14.1801C24.2626 11.8281 23.9983 9.43511 23.0628 7.26018ZM8.0452 2.70211C10.9209 1.46541 14.1599 1.62783 16.8793 3.10806L14.2245 5.7631C13.5413 5.5236 12.8076 5.39286 12.0439 5.39286C11.2618 5.39286 10.5113 5.52982 9.81437 5.7805L7.16592 3.13186C7.45139 2.97513 7.74509 2.8312 8.0452 2.70211ZM16.7763 11.9995C16.7763 13.8079 15.7564 15.3824 14.2618 16.1787C14.1729 16.2069 14.0875 16.2489 14.0084 16.3043C13.4098 16.5786 12.7444 16.7319 12.0439 16.7319C9.43443 16.7319 7.31149 14.609 7.31149 11.9995C7.31149 9.39007 9.43443 7.26714 12.0439 7.26714C14.6533 7.26714 16.7763 9.39007 16.7763 11.9995ZM5.06972 3.68631L8.09189 6.7083C7.58945 7.08458 7.14249 7.53063 6.76474 8.03179L3.7444 5.01145L5.06972 3.68631ZM2.74665 15.9982C1.4964 13.0912 1.67164 9.83447 3.18519 7.10289L5.83199 9.74969C5.57674 10.4523 5.43722 11.2098 5.43722 11.9995C5.43722 12.7816 5.57418 13.5321 5.82485 14.229L3.1764 16.8775C3.01967 16.5918 2.87556 16.2981 2.74665 15.9982ZM3.77754 18.9268L6.75284 15.9515C7.12894 16.4538 7.57498 16.9009 8.07633 17.2785L5.10287 20.2521L3.77754 18.9268ZM16.0427 21.2967C13.1423 22.5441 9.87974 22.3692 7.14798 20.8575L9.79405 18.2112C10.4966 18.4665 11.2543 18.606 12.0439 18.606C12.8517 18.606 13.6261 18.4601 14.342 18.1935L16.9826 20.834C16.6781 21.0038 16.3641 21.1585 16.0427 21.2967ZM20.3434 18.8937L19.018 20.219L16.049 17.2497C16.5474 16.8687 16.9903 16.4184 17.3629 15.9132L20.3434 18.8937ZM15.9576 6.68046L18.9849 3.65317L20.3102 4.97831L17.2943 7.99425C16.913 7.49584 16.4628 7.05308 15.9576 6.68046Z" fill="black"/>
</svg>

<?xml version="1.0" encoding="iso-8859-1"?>
<!-- Generator: Adobe Illustrator 23.1.0, SVG Export Plug-In . SVG Version: 6.00 Build 0)  -->
<svg version="1.1" id="&#x421;&#x43B;&#x43E;&#x439;_1"
	 xmlns="http://www.w3.org/2000/svg" xmlns:xlink="http://www.w3.org/1999/xlink" x="0px" y="0px" viewBox="0 0 24 24"
	 style="enable-background:new 0 0 24 24;" xml:space="preserve">
<path d="M23.063,7.26c-0.233-0.543-0.507-1.068-0.816-1.568l0.051-0.051c0.366-0.366,0.366-0.959,0-1.325l-2.651-2.65
	c-0.176-0.176-0.414-0.274-0.663-0.274c-0.248,0-0.487,0.099-0.663,0.274l-0.07,0.07C14.936-0.27,10.883-0.559,7.305,0.981
	c-0.521,0.224-1.027,0.486-1.51,0.78L5.732,1.699C5.557,1.523,5.318,1.424,5.07,1.424c-0.249,0-0.487,0.099-0.663,0.274l-2.65,2.65
	c-0.366,0.366-0.366,0.959,0,1.325l0.059,0.059c-0.924,1.513-1.509,3.223-1.7,4.987c-0.221,2.041,0.094,4.122,0.909,6.019
	c0.224,0.521,0.486,1.027,0.78,1.51L1.79,18.264c-0.366,0.366-0.366,0.959,0,1.325L4.44,22.24c0.176,0.176,0.414,0.274,0.663,0.274
	c0.248,0,0.487-0.099,0.663-0.274l0.012-0.012C7.693,23.402,9.857,24,12.036,24c1.605,0,3.219-0.324,4.747-0.982
	c0.543-0.233,1.067-0.507,1.568-0.816l0.004,0.004c0.176,0.176,0.414,0.274,0.663,0.274c0.249,0,0.487-0.099,0.663-0.274
	l2.651-2.651c0.366-0.366,0.366-0.959,0-1.325L18.28,14.18c0.24-0.683,0.37-1.417,0.37-2.181c0-0.808-0.146-1.582-0.413-2.298
	l2.64-2.64c0.17,0.305,0.325,0.619,0.463,0.94c0.788,1.833,1.011,3.852,0.643,5.838c-0.094,0.509,0.242,0.998,0.751,1.092
	c0.058,0.011,0.115,0.016,0.172,0.016c0.443,0,0.837-0.316,0.92-0.767C24.263,11.828,23.998,9.435,23.063,7.26z M8.045,2.702
	c2.876-1.237,6.115-1.074,8.834,0.406l-2.655,2.655c-0.683-0.24-1.417-0.37-2.181-0.37c-0.782,0-1.533,0.137-2.23,0.388L7.166,3.132
	C7.451,2.975,7.745,2.831,8.045,2.702z M16.776,12c0,1.808-1.02,3.383-2.515,4.179c-0.089,0.028-0.174,0.07-0.253,0.126
	c-0.599,0.274-1.264,0.428-1.965,0.428c-2.609,0-4.732-2.123-4.732-4.732c0-2.609,2.123-4.732,4.732-4.732
	C14.653,7.267,16.776,9.39,16.776,12z M5.07,3.686l3.022,3.022C7.589,7.085,7.142,7.531,6.765,8.032l-3.02-3.02L5.07,3.686z
	 M2.747,15.998c-1.25-2.907-1.075-6.164,0.439-8.895L5.832,9.75C5.577,10.452,5.437,11.21,5.437,12c0,0.782,0.137,1.533,0.388,2.229
	l-2.648,2.649C3.02,16.592,2.876,16.298,2.747,15.998z M3.778,18.927l2.975-2.975c0.376,0.502,0.822,0.949,1.323,1.327l-2.973,2.974
	L3.778,18.927z M16.043,21.297c-2.9,1.247-6.163,1.073-8.895-0.439l2.646-2.646c0.703,0.255,1.46,0.395,2.25,0.395
	c0.808,0,1.582-0.146,2.298-0.413l2.641,2.64C16.678,21.004,16.364,21.159,16.043,21.297z M20.343,18.894l-1.325,1.325l-2.969-2.969
	c0.498-0.381,0.941-0.831,1.314-1.337L20.343,18.894z M15.958,6.68l3.027-3.027l1.325,1.325l-3.016,3.016
	C16.913,7.496,16.463,7.053,15.958,6.68z"/>
</svg>
